img/swedish.svg

<svg width="32" height="32" viewBox="0 0 32 32" fill="none" xmlns="http://www.w3.org/2000/svg">
<path d="M16 32C24.8366 32 32 24.8366 32 16C32 7.16344 24.8366 0 16 0C7.16344 0 0 7.16344 0 16C0 24.8366 7.16344 32 16 32Z" fill="#FFDA44"/>
<path d="M12.5215 13.9131H31.8643C30.8416 6.06262 24.1289 0 15.9997 0C14.8051 0 13.6414 0.132063 12.5215 0.380313V13.9131H12.5215Z" fill="#0052B4"/>
<path d="M8.34763 13.9129V1.94531C3.95425 4.34244 0.809191 8.73937 0.135254 13.9129H8.34763V13.9129Z" fill="#0052B4"/>
<path d="M8.34757 18.0869H0.135254C0.809191 23.2605 3.95425 27.6574 8.34763 30.0545L8.34757 18.0869Z" fill="#0052B4"/>
<path d="M12.5215 18.087V31.6197C13.6414 31.8679 14.8051 32 15.9997 32C24.1289 32 30.8416 25.9374 31.8643 18.0869H12.5215V18.087Z" fill="#0052B4"/>
</svg>

<svg width="32" height="32" fill="none" xmlns="http://www.w3.org/2000/svg"><path d="M16 32c8.837 0 16-7.163 16-16S24.837 0 16 0 0 7.163 0 16s7.163 16 16 16z" fill="#FFDA44"/><path d="M12.521 13.913h19.343C30.842 6.063 24.13 0 16 0c-1.195 0-2.359.132-3.479.38v13.533zM8.348 13.913V1.945C3.954 4.342.809 8.74.135 13.913h8.213zM8.348 18.087H.135c.674 5.174 3.82 9.57 8.213 11.968V18.087zM12.521 18.087V31.62c1.12.248 2.284.38 3.479.38 8.129 0 14.842-6.063 15.864-13.913H12.521z" fill="#0052B4"/></svg>
